X: 1991
T: Yine Bir Gülnihal...
C: Dede Efendi
O: Turkey
F: http://compmusic.upf.edu/node/140
N: rast--sarki--semai--yine_bir_gulnihal--dede_efendi
N: makam= rast
N: form= sarki
N: usul= semai = 3/4
M: 3/4
L: 1/16
K: C _1/4B ^f  
Q: 1/4=150
%%MIDI tuningsystem comma53
D4 G4 G4  | D4 G4 G4  | F4 G4 A4  | G8 z4  | \
w:  ARANAĞME  |   |   |   | 
G4 B4 B4  | G4 B4 B4  | ^A4 B4 c4  | B8 z4  | 
w:   |   |   |   | 
B4 d4 d4  | B4 d4 d4  | ^c4 d4 e4  | d8 z4  | \
w:   |   |   |   | 
a2g2 =f2e2 d2e2  | f2e2 d2c2 B2A2  | 
w:   |   | 
B4 c4 d4  | B8 z4  | ^c2d2 c2d2 c2d2  | \
w:   |   |   | 
g8 z4  | ^A2B2 A2B2 A2B2  | e8 z4  | 
w:   |   |   | 
c2B2 A2c2 B2A2  | G2F2 E2G2 F2E2  | D4 G4 A4  | \
w:   |   |   | 
B8 G4  | c4 B4 A2A2  | 
w:   |   | 
B4 B2A2 G4  | ^c2d2 e2=f2 e2d2  | ^c2d2 c2^A2 =A2G2  | \
w:   |   |   | 
c4 B4 A4  | G2F2 E4 F4  | 
w:   |   | 
G4 B4 d4  | G8 z4  | G8 B4  | A12  | D4 E4 F4  | \
w:   |   |  Yi ne   |  bir   |  gül *  ni  | 
G8 z4  | G8 B4  | A12  | D4 E4 F4  | G8 z4  | 
w:  hal   |  al dı   |  bu   |  gön *  lü  |  mü    | 
G8 B4  | A12  | D4 E4 F4  | G8 z4  | G8 B4  | A12  | \
w:  Yi ne   |  bir   |  gül *  ni  |  hal   |  al dı   |  bu   | 
A4 B4 c4  | B8 z4  | c8 e4  | d4 c4 B4  | 
w:  gön *  lü  |  mü    |  Si mü  |  ten   | 
A4 B4 c4  | B8 z4  | G8 B4  | A12  | D4 E4 F4  | \
w:  gon *  ca   |  fem   |  bî be  |  del   |  ol  *  gü  | 
G8 z4  | c8 e4  | d4 c4 B4  | A4 B4 c4  | 
w:  zel    |  Si mü  |  ten   |  gon *  ca   | 
B8 z4  | G8 B4  | A12  | D4 E4 F4  | G8 z4  | \
w:  fem   |  bî be  |  del   |  ol  *  gü  |  zel    | 
g4 f4 e4  | g4 f4 e4  | ^d4 e4 f4  | e8 z4  | 
w:  Â *  teş_  |  i   |  ruh *  le  |  ri   | 
g4 f4 e4  | g4 f4 e4  | b8 b4  | b8 z4  | g4 f4 e4  | \
w:  yak *  tı   |  bu   |  gön lü  |  mü    |  Â *  teş_  | 
g4 f4 e4  | ^d4 e4 f4  | e8 z4  | 
w:  i   |  ruh *  le  |  ri   | 
g4 f4 e4  | g4 f4 e4  | ^d4 e4 f4  | e8 z4  | \
w:  yak *  tı   |  bu   |  gön *  lü  |  mü    | 
c8 e4  | d8 c2B2  | A4 B4 c4  | B8 z4  | 
w:  Pür_ e  |  da   |  pür  *  ce  |  fa   | 
G8 B4  | A12  | D4 E4 F4  | G8 z4  | c8 e4  | \
w:  pek  kü  |  çük   |  pek  *  gü  |  zel    |  Pür_ e  | 
d8 c2B2  | A4 B4 c4  | B8 z4  | G8 B4  | A12  | 
w:  da   |  pür  *  ce  |  fa   |  pek  kü  |  çük   | 
D4 E4 F4  | G8 z4  | |


